desktop/renderer-app/src/assets/image/room_not_find.svg

<?xml version="1.0" encoding="UTF-8"?>
<svg width="546px" height="346px" viewBox="0 0 546 346" version="1.1" xmlns="http://www.w3.org/2000/svg" xmlns:xlink="http://www.w3.org/1999/xlink">
    <title>编组 3</title>
    <defs>
        <linearGradient x1="50%" y1="0%" x2="50%" y2="100%" id="linearGradient-1">
            <stop stop-color="#F1F9FB" offset="0%"></stop>
            <stop stop-color="#F1F9FB" stop-opacity="0" offset="100%"></stop>
        </linearGradient>
        <linearGradient x1="100%" y1="0%" x2="0%" y2="100%" id="linearGradient-2">
            <stop stop-color="#AAE3FE" offset="0%"></stop>
            <stop stop-color="#71C3FC" offset="100%"></stop>
        </linearGradient>
        <linearGradient x1="16.9510658%" y1="100%" x2="87.6598719%" y2="0%" id="linearGradient-3">
            <stop stop-color="#C7DEEE" stop-opacity="0" offset="0%"></stop>
            <stop stop-color="#C7DEEE" offset="100%"></stop>
        </linearGradient>
        <linearGradient x1="50%" y1="0%" x2="50%" y2="100%" id="linearGradient-4">
            <stop stop-color="#C7DEEE" stop-opacity="0" offset="0%"></stop>
            <stop stop-color="#C7DEEE" offset="100%"></stop>
        </linearGradient>
    </defs>
    <g id="白板音视频" stroke="none" stroke-width="1" fill="none" fill-rule="evenodd">
        <g id="404" transform="translate(-124.000000, -171.000000)">
            <g id="编组-3" transform="translate(124.000000, 171.000000)">
                <rect id="矩形" fill-opacity="0.01" fill="#FFFFFF" x="0" y="0" width="546" height="346"></rect>
                <path d="M0,346 C90.2666668,278 180.933333,244 272,244 C363.066667,244 454.4,278 546,346" id="路径-39" fill="url(#linearGradient-1)"></path>
                <circle id="椭圆形备份-10" fill="url(#linearGradient-2)" opacity="0.539999962" cx="156" cy="191" r="8"></circle>
                <circle id="椭圆形备份-11" fill="url(#linearGradient-2)" opacity="0.209999993" cx="249.5" cy="65.5" r="3.5"></circle>
                <circle id="椭圆形备份-12" fill="url(#linearGradient-2)" opacity="0.319999993" cx="390" cy="159" r="5"></circle>
                <circle id="椭圆形备份-13" fill="#E3F3FE" cx="273" cy="173" r="95"></circle>
                <circle id="椭圆形备份-27" fill="#C7DEEE" opacity="0.419999987" cx="335" cy="141" r="13"></circle>
                <circle id="椭圆形备份-28" fill="#C7DEEE" opacity="0.359999985" cx="295.5" cy="243.5" r="11.5"></circle>
                <circle id="椭圆形备份-29" fill="#C7DEEE" opacity="0.560000002" cx="233" cy="145" r="9"></circle>
                <path d="M198.5,199 C212.583261,199 224,210.416739 224,224.5 C224,233.536971 219.299096,241.475986 212.209235,246.005101 C199.061864,235.046772 188.921323,220.603368 183.205362,204.094055 C187.467004,200.89508 192.762192,199 198.5,199 Z" id="形状结合备份-5" fill="url(#linearGradient-3)" opacity="0.765620374"></path>
                <path d="M273,78 C283.85447,78 294.28376,79.8204108 303.999223,83.1725848 C303.905079,102.42471 288.271441,118 269,118 C250.77699,118 235.806733,104.073308 234.151911,86.2826048 C246.011079,80.9595768 259.159916,78 273,78 Z" id="形状结合备份-6" fill="url(#linearGradient-4)" opacity="0.919577789"></path>
                <path d="M181.944385,200.1775 L181.630876,200.454136 L180.161574,201.766132 L178.722785,203.070611 C178.248324,203.504147 177.779022,203.936374 177.314953,204.367236 L177.314953,204.367236 L176.751139,204.892486 L175.642218,205.936246 L174.558312,206.970864 L173.499504,207.996153 L172.46588,209.011923 C172.295713,209.180414 172.126598,209.348501 171.958538,209.516179 L171.958538,209.516179 L170.962846,210.517317 L169.992548,211.508465 C169.194571,212.330206 168.423133,213.141344 167.678454,213.941388 L167.678454,213.941388 L166.797698,214.896083 L165.942716,215.839939 C165.802371,215.996335 165.663104,216.152271 165.524916,216.307744 L165.524916,216.307744 L164.708751,217.234988 C164.574886,217.388591 164.442105,217.541723 164.310407,217.69438 L164.310407,217.69438 L163.53325,218.604586 C163.405897,218.755326 163.279632,218.905583 163.154457,219.055353 L163.154457,219.055353 L162.416497,219.948098 C161.570832,220.982743 160.778733,221.993138 160.040804,222.977937 L160.040804,222.977937 L159.421573,223.815751 C153.463195,231.991991 151.365268,238.322464 153.488494,242 C155.611721,245.677536 162.143035,247.025915 172.203055,245.953928 L172.203055,245.953928 L173.238238,245.836565 C174.460064,245.689899 175.731142,245.509119 177.050003,245.294074 L177.050003,245.294074 L178.192122,245.101354 C178.384415,245.067834 178.577674,245.033614 178.771895,244.998694 L178.771895,244.998694 L179.948735,244.780759 C180.344842,244.705309 180.744764,244.627053 181.148466,244.545987 L181.148466,244.545987 L182.370882,244.294358 L183.615777,244.025849 C183.825121,243.97969 184.035394,243.932827 184.24659,243.885259 L184.24659,243.885259 L185.524818,243.591391 C186.599189,243.33945 187.696441,243.06987 188.816038,242.782597 L188.816038,242.782597 L190.170246,242.429372 L191.5457,242.05914 L192.942195,241.67188 L194.359524,241.267571 L195.797483,240.84619 L197.255867,240.407716 L198.903249,239.899484 C199.207724,239.804332 199.513138,239.708221 199.81948,239.611157 L199.81948,239.611157 L201.668586,239.017369 L203.539459,238.400915 C203.680275,238.353937 203.821269,238.306771 203.962441,238.259416 C204.986037,239.342439 206.035762,240.401787 207.109776,241.436091 C177.162001,251.671134 155.47259,253.436555 150.024393,244 C144.577705,234.56606 156.942945,216.672493 180.76714,195.862177 C181.127606,197.313746 181.519729,198.752634 181.944385,200.1775 Z M340.109378,104.150263 C369.425604,94.2828689 390.601589,92.6919271 395.975607,102 C401.422295,111.43394 389.057055,129.327507 365.23286,150.137823 C364.872394,148.686254 364.480271,147.247366 364.055615,145.8225 L364.369124,145.545864 L365.838426,144.233868 L367.277215,142.929389 C367.751676,142.495853 368.220978,142.063626 368.685047,141.632764 L368.685047,141.632764 L369.248861,141.107514 L370.357782,140.063754 L371.441688,139.029136 L372.500496,138.003847 L373.53412,136.988077 C373.704287,136.819586 373.873402,136.651499 374.041462,136.483821 L374.041462,136.483821 L375.037154,135.482683 L376.007452,134.491535 C376.805429,133.669794 377.576867,132.858656 378.321546,132.058612 L378.321546,132.058612 L379.202302,131.103917 L380.057284,130.160061 C380.197629,130.003665 380.336896,129.847729 380.475084,129.692256 L380.475084,129.692256 L381.291249,128.765012 C381.425114,128.611409 381.557895,128.458277 381.689593,128.30562 L381.689593,128.30562 L382.46675,127.395414 C382.594103,127.244674 382.720368,127.094417 382.845543,126.944647 L382.845543,126.944647 L383.583503,126.051902 C384.429168,125.017257 385.221267,124.006862 385.959196,123.022063 L385.959196,123.022063 L386.578427,122.184249 C392.536805,114.008009 394.634732,107.677536 392.511506,104 C390.388279,100.322464 383.856965,98.9740853 373.796945,100.046072 L373.796945,100.046072 L372.761762,100.163435 C371.539936,100.310101 370.268858,100.490881 368.949997,100.705926 L368.949997,100.705926 L367.807878,100.898646 C367.615585,100.932166 367.422326,100.966386 367.228105,101.001306 L367.228105,101.001306 L366.051265,101.219241 C365.655158,101.294691 365.255236,101.372947 364.851534,101.454013 L364.851534,101.454013 L363.629118,101.705642 L362.384223,101.974151 C362.174879,102.02031 361.964606,102.067173 361.75341,102.114741 L361.75341,102.114741 L360.475182,102.408609 C359.400811,102.66055 358.303559,102.93013 357.183962,103.217403 L357.183962,103.217403 L355.829754,103.570628 L354.4543,103.94086 L353.057805,104.32812 L351.640476,104.732429 L350.202517,105.15381 L348.744133,105.592284 L347.096751,106.100516 C346.792276,106.195668 346.486862,106.291779 346.18052,106.388843 L346.18052,106.388843 L344.331414,106.982631 L342.460541,107.599085 C342.320058,107.645952 342.179396,107.693007 342.038558,107.740248 C341.013963,106.657561 339.964238,105.598213 338.890224,104.563909 Z" id="形状结合备份-7" fill="#BDD5EE" fill-rule="nonzero"></path>
                <g id="编组" opacity="0.449999988" transform="translate(205.000000, 74.500000) rotate(-30.000000) translate(-205.000000, -74.500000) translate(198.000000, 60.000000)">
                    <path d="M0,7 L0,4 C-7.1463071e-16,1.790861 1.790861,-3.82769592e-17 4,0 L10,0 C12.209139,-4.05812251e-16 14,1.790861 14,4 L14,9.5 C14,11.4329966 12.4329966,13 10.5,13 L9,13 C7.8954305,13 7,13.8954305 7,15 L7,19 L7,19" id="路径-36备份" stroke="#BDD5EE" stroke-width="4" stroke-linecap="round" stroke-linejoin="round"></path>
                    <circle id="椭圆形备份-31" fill="#BDD5EE" cx="7" cy="27" r="2"></circle>
                </g>
                <g id="编组-2" opacity="0.779999971" transform="translate(329.000000, 51.000000) rotate(-30.000000) translate(-329.000000, -51.000000) translate(309.000000, 31.000000)">
                    <circle id="椭圆形备份-32" fill="#BDD5EE" cx="3" cy="37" r="3"></circle>
                    <path d="M0,20 C11.045695,20 20,28.954305 20,40 L20,40 L20,40" id="路径-37备份" stroke="#BDD5EE" stroke-width="4" stroke-linecap="round" stroke-linejoin="round"></path>
                    <path d="M0,10 C16.5685425,10 30,23.4314575 30,40 L30,40 L30,40" id="路径-38备份-2" stroke="#BDD5EE" stroke-width="4" stroke-linecap="round" stroke-linejoin="round"></path>
                    <path d="M0,0 C22.09139,-4.05812251e-15 40,17.90861 40,40 L40,40 L40,40" id="路径-38备份-3" stroke="#BDD5EE" stroke-width="4" stroke-linecap="round" stroke-linejoin="round"></path>
                </g>
                <path d="M421,202.856406 C421,185.183294 358.319865,170.856406 281,170.856406 C203.680135,170.856406 141,185.183294 141,202.856406" id="椭圆形备份-30" stroke="#BDD5EE" stroke-width="4" transform="translate(281.000000, 186.856406) scale(1, -1) rotate(30.000000) translate(-281.000000, -186.856406) "></path>
            </g>
        </g>
    </g>
</svg>

<svg width="546" height="346" xmlns="http://www.w3.org/2000/svg"><defs><linearGradient x1="50%" y1="0%" x2="50%" y2="100%" id="a"><stop stop-color="#F1F9FB" offset="0%"/><stop stop-color="#F1F9FB" stop-opacity="0" offset="100%"/></linearGradient><linearGradient x1="100%" y1="0%" x2="0%" y2="100%" id="b"><stop stop-color="#AAE3FE" offset="0%"/><stop stop-color="#71C3FC" offset="100%"/></linearGradient><linearGradient x1="16.951%" y1="100%" x2="87.66%" y2="0%" id="c"><stop stop-color="#C7DEEE" stop-opacity="0" offset="0%"/><stop stop-color="#C7DEEE" offset="100%"/></linearGradient><linearGradient x1="50%" y1="0%" x2="50%" y2="100%" id="d"><stop stop-color="#C7DEEE" stop-opacity="0" offset="0%"/><stop stop-color="#C7DEEE" offset="100%"/></linearGradient></defs><g fill="none" fill-rule="evenodd"><path fill-opacity=".01" fill="#FFF" d="M0 0h546v346H0z"/><path d="M0 346c90.267-68 180.933-102 272-102 91.067 0 182.4 34 274 102" fill="url(#a)"/><circle fill="url(#b)" opacity=".54" cx="156" cy="191" r="8"/><circle fill="url(#b)" opacity=".21" cx="249.5" cy="65.5" r="3.5"/><circle fill="url(#b)" opacity=".32" cx="390" cy="159" r="5"/><circle fill="#E3F3FE" cx="273" cy="173" r="95"/><circle fill="#C7DEEE" opacity=".42" cx="335" cy="141" r="13"/><circle fill="#C7DEEE" opacity=".36" cx="295.5" cy="243.5" r="11.5"/><circle fill="#C7DEEE" opacity=".56" cx="233" cy="145" r="9"/><path d="M198.5 199c14.083 0 25.5 11.417 25.5 25.5 0 9.037-4.7 16.976-11.79 21.505-13.148-10.958-23.289-25.402-29.005-41.91A25.388 25.388 0 0 1 198.5 199Z" fill="url(#c)" opacity=".766"/><path d="M273 78c10.854 0 21.284 1.82 31 5.173-.096 19.252-15.73 34.827-35 34.827-18.223 0-33.193-13.927-34.848-31.717C246.012 80.96 259.16 78 273 78Z" fill="url(#d)" opacity=".92"/><path d="m181.944 200.178-.313.276-1.47 1.312-1.438 1.305c-.475.433-.944.865-1.408 1.296l-.564.525-1.109 1.044-1.084 1.035-1.058 1.025-1.034 1.016-.507.504-.996 1.001-.97.991c-.798.822-1.57 1.633-2.315 2.433l-.88.955-.855.944-.418.468-.816.927-.399.46-.777.91-.379.45-.738.893a91.435 91.435 0 0 0-2.375 3.03l-.62.838c-5.958 8.176-8.056 14.506-5.933 18.184 2.124 3.678 8.655 5.026 18.715 3.954l1.035-.117a91.435 91.435 0 0 0 3.812-.543l1.142-.193.58-.102 1.177-.218c.396-.076.796-.154 1.2-.235l1.222-.252 1.245-.268.63-.14 1.279-.295c1.074-.252 2.171-.521 3.291-.808l1.354-.354 1.376-.37 1.396-.387 1.418-.404 1.437-.422 1.459-.438 1.647-.509c.305-.095.61-.19.916-.288l1.85-.594 1.87-.616.423-.142a95.094 95.094 0 0 0 3.148 3.177c-29.948 10.235-51.637 12-57.086 2.564-5.446-9.434 6.919-27.328 30.743-48.138.36 1.452.753 2.89 1.177 4.316ZM340.11 104.15c29.317-9.867 50.493-11.458 55.867-2.15 5.446 9.434-6.919 27.328-30.743 48.138a96.733 96.733 0 0 0-1.177-4.316l.313-.276 1.47-1.312 1.438-1.305c.475-.433.944-.865 1.408-1.296l.564-.525 1.109-1.044 1.084-1.035 1.058-1.025 1.034-1.016.507-.504.996-1.001.97-.991c.798-.822 1.57-1.633 2.315-2.433l.88-.955.855-.944.418-.468.816-.927.399-.46.777-.91.379-.45.738-.893a91.435 91.435 0 0 0 2.375-3.03l.62-.838c5.958-8.176 8.056-14.506 5.933-18.184-2.124-3.678-8.655-5.026-18.715-3.954l-1.035.117a91.435 91.435 0 0 0-3.812.543l-1.142.193-.58.102-1.177.218c-.396.076-.796.154-1.2.235l-1.222.252-1.245.268-.63.14-1.279.295c-1.074.252-2.171.521-3.291.808l-1.354.354-1.376.37-1.396.387-1.418.404-1.437.422-1.459.438-1.647.509c-.305.095-.61.19-.916.288l-1.85.594-1.87.616-.422.141a96.415 96.415 0 0 0-3.149-3.176Z" fill="#BDD5EE" fill-rule="nonzero"/><g opacity=".45" transform="rotate(-30 217.962 -324.973)"><path d="M0 7V4a4 4 0 0 1 4-4h6a4 4 0 0 1 4 4v5.5a3.5 3.5 0 0 1-3.5 3.5H9a2 2 0 0 0-2 2v4h0" stroke="#BDD5EE" stroke-width="4" stroke-linecap="round" stroke-linejoin="round"/><circle fill="#BDD5EE" cx="7" cy="27" r="2"/></g><g opacity=".78" transform="rotate(-30 232.347 -541.102)"><circle fill="#BDD5EE" cx="3" cy="37" r="3"/><path d="M0 20c11.046 0 20 8.954 20 20h0" stroke="#BDD5EE" stroke-width="4" stroke-linecap="round" stroke-linejoin="round"/><path d="M0 10c16.569 0 30 13.431 30 30h0" stroke="#BDD5EE" stroke-width="4" stroke-linecap="round" stroke-linejoin="round"/><path d="M0 0c22.091 0 40 17.909 40 40h0" stroke="#BDD5EE" stroke-width="4" stroke-linecap="round" stroke-linejoin="round"/></g><path d="M394.244 103c8.836 15.305-38.283 59.053-105.244 97.713S160.593 258.305 151.756 243" stroke="#BDD5EE" stroke-width="4"/></g></svg>
